images/icon_github.svg

<svg viewBox="0 0 690 673" xmlns="http://www.w3.org/2000/svg" xml:space="preserve" style="fill-rule:evenodd;clip-rule:evenodd;stroke-linejoin:round;stroke-miterlimit:2"><path d="M414.937 294.248c-14.457 0-26.178 11.718-26.178 26.181 0 11.561 7.498 21.371 17.903 24.836 1.31.238 1.788-.572 1.788-1.263 0-.622-.021-2.268-.036-4.454-7.282 1.582-8.817-3.507-8.817-3.507-1.191-3.024-2.908-3.827-2.908-3.827-2.376-1.627.182-1.593.182-1.593 2.629.185 4.01 2.697 4.01 2.697 2.333 4.002 6.126 2.842 7.62 2.174.235-1.694.911-2.842 1.659-3.498-5.814-.659-11.924-2.91-11.924-12.94 0-2.853 1.021-5.193 2.692-7.021-.267-.664-1.165-3.324.259-6.93 0 0 2.195-.703 7.198 2.686 2.088-.582 4.33-.873 6.554-.883 2.224.01 4.464.301 6.552.883 5.001-3.389 7.196-2.686 7.196-2.686 1.426 3.606.528 6.266.258 6.93 1.675 1.828 2.691 4.168 2.691 7.021 0 10.059-6.123 12.272-11.954 12.92.939.809 1.778 2.403 1.778 4.846 0 3.5-.032 6.322-.032 7.182 0 .699.474 1.511 1.801 1.255 10.392-3.464 17.886-13.271 17.886-24.828 0-14.463-11.717-26.181-26.178-26.181" style="fill:#f0f0f0;fill-rule:nonzero" transform="translate(-5117.809 -3873.623)scale(13.16447)"/></svg>

<?xml version="1.0" encoding="UTF-8" standalone="no"?><!DOCTYPE svg PUBLIC "-//W3C//DTD SVG 1.1//EN" "http://www.w3.org/Graphics/SVG/1.1/DTD/svg11.dtd"><svg width="100%" height="100%" viewBox="0 0 690 673" version="1.1" xmlns="http://www.w3.org/2000/svg" xmlns:xlink="http://www.w3.org/1999/xlink" xml:space="preserve" xmlns:serif="http://www.serif.com/" style="fill-rule:evenodd;clip-rule:evenodd;stroke-linejoin:round;stroke-miterlimit:2;"><g transform="matrix(1,0,0,1,-1625.11,-1465.6)"><g transform="matrix(4.16667,0,0,4.16667,0,0)"><g transform="matrix(3.15947,0,0,3.15947,-838.247,-577.925)"><path d="M414.937,294.248C400.48,294.248 388.759,305.966 388.759,320.429C388.759,331.99 396.257,341.8 406.662,345.265C407.972,345.503 408.45,344.693 408.45,344.002C408.45,343.38 408.429,341.734 408.414,339.548C401.132,341.13 399.597,336.041 399.597,336.041C398.406,333.017 396.689,332.214 396.689,332.214C394.313,330.587 396.871,330.621 396.871,330.621C399.5,330.806 400.881,333.318 400.881,333.318C403.214,337.32 407.007,336.16 408.501,335.492C408.736,333.798 409.412,332.65 410.16,331.994C404.346,331.335 398.236,329.084 398.236,319.054C398.236,316.201 399.257,313.861 400.928,312.033C400.661,311.369 399.763,308.709 401.187,305.103C401.187,305.103 403.382,304.4 408.385,307.789C410.473,307.207 412.715,306.916 414.939,306.906C417.163,306.916 419.403,307.207 421.491,307.789C426.492,304.4 428.687,305.103 428.687,305.103C430.113,308.709 429.215,311.369 428.945,312.033C430.62,313.861 431.636,316.201 431.636,319.054C431.636,329.113 425.513,331.326 419.682,331.974C420.621,332.783 421.46,334.377 421.46,336.82C421.46,340.32 421.428,343.142 421.428,344.002C421.428,344.701 421.902,345.513 423.229,345.257C433.621,341.793 441.115,331.986 441.115,320.429C441.115,305.966 429.398,294.248 414.937,294.248Z" style="fill:rgb(240,240,240);fill-rule:nonzero;"/></g></g></g></svg>
